svg/fluentui-system-icons/ic_fluent_app_folder_48_regular.svg

<svg width="48" height="48" viewBox="0 0 48 48" fill="none" xmlns="http://www.w3.org/2000/svg">
<path d="M12 15.5C12 13.567 13.567 12 15.5 12H19.5C21.433 12 23 13.567 23 15.5V19.5C23 21.433 21.433 23 19.5 23H15.5C13.567 23 12 21.433 12 19.5V15.5ZM15.5 14.5C14.9477 14.5 14.5 14.9477 14.5 15.5V19.5C14.5 20.0523 14.9477 20.5 15.5 20.5H19.5C20.0523 20.5 20.5 20.0523 20.5 19.5V15.5C20.5 14.9477 20.0523 14.5 19.5 14.5H15.5ZM15.5 25C13.567 25 12 26.567 12 28.5V32.5C12 34.433 13.567 36 15.5 36H19.5C21.433 36 23 34.433 23 32.5V28.5C23 26.567 21.433 25 19.5 25H15.5ZM14.5 28.5C14.5 27.9477 14.9477 27.5 15.5 27.5H19.5C20.0523 27.5 20.5 27.9477 20.5 28.5V32.5C20.5 33.0523 20.0523 33.5 19.5 33.5H15.5C14.9477 33.5 14.5 33.0523 14.5 32.5V28.5ZM25 15.5C25 13.567 26.567 12 28.5 12H32.5C34.433 12 36 13.567 36 15.5V19.5C36 21.433 34.433 23 32.5 23H28.5C26.567 23 25 21.433 25 19.5V15.5ZM28.5 14.5C27.9477 14.5 27.5 14.9477 27.5 15.5V19.5C27.5 20.0523 27.9477 20.5 28.5 20.5H32.5C33.0523 20.5 33.5 20.0523 33.5 19.5V15.5C33.5 14.9477 33.0523 14.5 32.5 14.5H28.5ZM28.5 25C26.567 25 25 26.567 25 28.5V32.5C25 34.433 26.567 36 28.5 36H32.5C34.433 36 36 34.433 36 32.5V28.5C36 26.567 34.433 25 32.5 25H28.5ZM27.5 28.5C27.5 27.9477 27.9477 27.5 28.5 27.5H32.5C33.0523 27.5 33.5 27.9477 33.5 28.5V32.5C33.5 33.0523 33.0523 33.5 32.5 33.5H28.5C27.9477 33.5 27.5 33.0523 27.5 32.5V28.5ZM6 12.25C6 8.79822 8.79822 6 12.25 6H35.75C39.2018 6 42 8.79822 42 12.25V35.75C42 39.2018 39.2018 42 35.75 42H12.25C8.79822 42 6 39.2018 6 35.75V12.25ZM12.25 8.5C10.1789 8.5 8.5 10.1789 8.5 12.25V35.75C8.5 37.8211 10.1789 39.5 12.25 39.5H35.75C37.8211 39.5 39.5 37.8211 39.5 35.75V12.25C39.5 10.1789 37.8211 8.5 35.75 8.5H12.25Z" fill="#212121"/>
</svg>

<svg xmlns="http://www.w3.org/2000/svg" width="48" height="48"><path d="M12 15.5a3.5 3.5 0 0 1 3.5-3.5h4a3.5 3.5 0 0 1 3.5 3.5v4a3.5 3.5 0 0 1-3.5 3.5h-4a3.5 3.5 0 0 1-3.5-3.5v-4Zm3.5-1a1 1 0 0 0-1 1v4a1 1 0 0 0 1 1h4a1 1 0 0 0 1-1v-4a1 1 0 0 0-1-1h-4Zm0 10.5a3.5 3.5 0 0 0-3.5 3.5v4a3.5 3.5 0 0 0 3.5 3.5h4a3.5 3.5 0 0 0 3.5-3.5v-4a3.5 3.5 0 0 0-3.5-3.5h-4Zm-1 3.5a1 1 0 0 1 1-1h4a1 1 0 0 1 1 1v4a1 1 0 0 1-1 1h-4a1 1 0 0 1-1-1v-4Zm10.5-13a3.5 3.5 0 0 1 3.5-3.5h4a3.5 3.5 0 0 1 3.5 3.5v4a3.5 3.5 0 0 1-3.5 3.5h-4a3.5 3.5 0 0 1-3.5-3.5v-4Zm3.5-1a1 1 0 0 0-1 1v4a1 1 0 0 0 1 1h4a1 1 0 0 0 1-1v-4a1 1 0 0 0-1-1h-4Zm0 10.5a3.5 3.5 0 0 0-3.5 3.5v4a3.5 3.5 0 0 0 3.5 3.5h4a3.5 3.5 0 0 0 3.5-3.5v-4a3.5 3.5 0 0 0-3.5-3.5h-4Zm-1 3.5a1 1 0 0 1 1-1h4a1 1 0 0 1 1 1v4a1 1 0 0 1-1 1h-4a1 1 0 0 1-1-1v-4ZM6 12.25A6.25 6.25 0 0 1 12.25 6h23.5A6.25 6.25 0 0 1 42 12.25v23.5A6.25 6.25 0 0 1 35.75 42h-23.5A6.25 6.25 0 0 1 6 35.75v-23.5Zm6.25-3.75a3.75 3.75 0 0 0-3.75 3.75v23.5a3.75 3.75 0 0 0 3.75 3.75h23.5a3.75 3.75 0 0 0 3.75-3.75v-23.5a3.75 3.75 0 0 0-3.75-3.75h-23.5Z"/></svg>
